vendor/shopware/storefront/Resources/app/storefront/dist/assets/icon/default/alert.svg

<svg xmlns="http://www.w3.org/2000/svg" width="24" height="24" viewBox="0 0 24 24">
  <path fill="#758CA3" fill-rule="evenodd" d="M24,12 C24,18.627417 18.627417,24 12,24 C5.372583,24 6.14069502e-15,18.627417 5.32907052e-15,12 C-8.11624501e-16,5.372583 5.372583,4.77015075e-15 12,3.55271368e-15 C18.627417,5.58919772e-16 24,5.372583 24,12 Z M12,2 C6.4771525,2 2,6.4771525 2,12 C2,17.5228475 6.4771525,22 12,22 C17.5228475,22 22,17.5228475 22,12 C22,6.4771525 17.5228475,2 12,2 Z M12,15 C12.5522847,15 13,15.4477153 13,16 C13,16.5522847 12.5522847,17 12,17 C11.4477153,17 11,16.5522847 11,16 C11,15.4477153 11.4477153,15 12,15 Z M11,8 C11,7.44771525 11.4477153,7 12,7 C12.5522847,7 13,7.44771525 13,8 L13,13 C13,13.5522847 12.5522847,14 12,14 C11.4477153,14 11,13.5522847 11,13 L11,8 Z"/>
</svg>

<svg xmlns="http://www.w3.org/2000/svg" width="24" height="24" viewBox="0 0 24 24"><path fill="#758CA3" fill-rule="evenodd" d="M24 12c0 6.6274-5.3726 12-12 12S0 18.6274 0 12 5.3726 0 12 0s12 5.3726 12 12zM12 2C6.4772 2 2 6.4772 2 12s4.4772 10 10 10 10-4.4772 10-10S17.5228 2 12 2zm0 13c.5523 0 1 .4477 1 1s-.4477 1-1 1-1-.4477-1-1 .4477-1 1-1zm-1-7c0-.5523.4477-1 1-1s1 .4477 1 1v5c0 .5523-.4477 1-1 1s-1-.4477-1-1V8z"/></svg>
